build/images/header/advantages_2.svg

<svg xmlns="http://www.w3.org/2000/svg" xmlns:xlink="http://www.w3.org/1999/xlink" version="1.1" x="0px" y="0px" viewBox="0 0 67 67" enable-background="new 0 0 67 67" xml:space="preserve"><g><path d="M60.7477875,1.7480469H29.7477856c-2.0180664,0-3.659668,1.6416016-3.659668,3.659668v12.8322144L3.0578449,27.90625   c-0.2607422,0.109375-0.4379883,0.3554688-0.4580078,0.6376953s0.1196289,0.5517578,0.3623047,0.6972656l2.937012,1.7578735   v18.7322998c-1.5018921,0.3424072-2.6289065,1.6866455-2.6289065,3.2949829v1.8056641c0,0.4140625,0.3359375,0.75,0.7500002,0.75   h5.2592773c0.4140625,0,0.75-0.3359375,0.75-0.75v-1.8056641c0-1.6062012-1.1271973-2.9486084-2.6303711-3.2932129V31.8968506   l2.3222656,1.3898926c-0.0713997,0.5354958-0.0090437-0.9333267-0.0332031,8.7210693   c0,3.173584,8.1289053,4.8736572,16.3999023,4.9710693v14.6187744c0,0.755127,0.2312012,1.4573975,0.6265259,2.0402832   c0.6577148,0.9729004,1.7709961,1.6140137,3.031189,1.6140137h31.0000019c2.0161133,0,3.65625-1.640625,3.65625-3.65625   c-0.0000534,0.1001129-0.0041199-3.0966225,0-56.1875C64.4020844,3.4175251,62.7560692,1.7480469,60.7477875,1.7480469z    M8.5295248,53.0263672v1.0556641H4.7702475v-1.0556641c0-1.0390625,0.8413086-1.8847656,1.875-1.8847656   C7.68431,51.1416016,8.5295248,51.9873047,8.5295248,53.0263672z M60.7477875,63.7480469H29.7477856   c-0.7438354,0-1.4009399-0.3765259-1.7894897-0.947998c-0.232666-0.3441772-0.3687134-0.758728-0.3687134-1.2043457v-5.0673828   h35.3085938v5.0693359C62.8981781,62.7723465,61.9192657,63.7480469,60.7477875,63.7480469z M62.8981781,55.0283203H27.5881176   v-8.0449219c4.0383148-0.0462685,16.4096699-0.9355965,16.4096699-4.9755859   c-0.0044556-6.064888,0.0106964-8.5242271-0.019043-8.7324219l6.7348633-4.0341797   c0.2426758-0.1455078,0.3823242-0.4150391,0.3623047-0.6972656s-0.1972656-0.5283203-0.4580078-0.6376953l-23.0297871-9.6665039   v-6.2641602h35.3100586V55.0283203z M26.8381176,37.0283203c-4.1601658,0-12.1701193,0.5372849-15.6499014,2.8095703   c0.0220804-6.9501648-0.2411404-6.4975128,0.6147461-7.0869141c2.1616211-1.5917969,8.3442373-2.703125,15.0351553-2.703125   c2.9183159,0,15.6596699,0.8023186,15.6596699,3.5v6.2910156C38.9853973,37.5454597,31.0160751,37.0283203,26.8381176,37.0283203z    M27.5895824,5.4082031c0-1.1889648,0.9672852-2.15625,2.15625-2.15625h31.0000019   c1.1900253,0,2.1523438,0.9808574,2.1523438,2.1557617v5.0678711H27.5895824V5.4082031z M26.8381176,19.5517578   l21.833498,9.1640625l-5.4099731,3.2374268c-2.8761902-2.8522911-12.3904743-3.4053955-16.4235249-3.4053955   c-4.0383663,0-13.5532837,0.5548306-16.4233398,3.40625l-5.4116211-3.2382813L26.8381176,19.5517578z M11.1882162,42.0078125   c0-1.2138672,5.374999-3.4794922,15.6499014-3.4794922c10.2812519,0,15.6596699,2.265625,15.6596699,3.4794922   c0,1.2148438-5.378418,3.4804688-15.6596699,3.4804688C16.5632153,45.4882813,11.1882162,43.2226563,11.1882162,42.0078125z"/><path d="M45.2458344,57.6591797c-1.3676758,0-2.4804688,1.1123047-2.4804688,2.4804688s1.112793,2.4814453,2.4804688,2.4814453   c1.3681641,0,2.480957-1.1132813,2.480957-2.4814453S46.6139984,57.6591797,45.2458344,57.6591797z M45.2458344,61.1210938   c-0.5405273,0-0.9804688-0.4404297-0.9804688-0.9814453s0.4399414-0.9804688,0.9804688-0.9804688   c0.5410156,0,0.980957,0.4394531,0.980957,0.9804688S45.78685,61.1210938,45.2458344,61.1210938z"/></g>
</svg>

<svg xmlns="http://www.w3.org/2000/svg" viewBox="0 0 67 67"><path d="M60.748 1.748h-31a3.664 3.664 0 00-3.66 3.66V18.24l-23.03 9.666a.749.749 0 00-.096 1.335L5.9 31v18.732a3.384 3.384 0 00-2.629 3.295v1.806c0 .414.336.75.75.75h5.26a.75.75 0 00.75-.75v-1.806a3.386 3.386 0 00-2.63-3.293V31.897l2.321 1.39c-.071.535-.009-.934-.033 8.72 0 3.174 8.13 4.874 16.4 4.972v14.619c0 .755.231 1.457.627 2.04a3.656 3.656 0 003.03 1.614h31a3.66 3.66 0 003.657-3.656c0 .1-.004-3.097 0-56.188 0-1.99-1.646-3.66-3.654-3.66zM8.53 53.026v1.056H4.77v-1.056c0-1.039.842-1.884 1.875-1.884 1.04 0 1.885.845 1.885 1.884zm52.218 10.722h-31a2.162 2.162 0 01-1.79-.948 2.144 2.144 0 01-.368-1.204v-5.068h35.308v5.07a2.17 2.17 0 01-2.15 2.15zm2.15-8.72h-35.31v-8.045c4.038-.046 16.41-.935 16.41-4.975-.005-6.065.01-8.524-.02-8.733l6.736-4.034a.75.75 0 00-.096-1.335l-23.03-9.666v-6.264h35.31v43.052zm-36.06-18c-4.16 0-12.17.538-15.65 2.81.022-6.95-.24-6.498.615-7.087 2.162-1.592 8.344-2.703 15.035-2.703 2.918 0 15.66.802 15.66 3.5v6.29c-3.513-2.293-11.482-2.81-15.66-2.81zm.752-31.62c0-1.189.967-2.156 2.156-2.156h31c1.19 0 2.152.98 2.152 2.156v5.068H27.59V5.408zm-.752 14.144l21.834 9.164-5.41 3.237c-2.877-2.852-12.39-3.405-16.424-3.405-4.038 0-13.553.555-16.423 3.406l-5.412-3.238 21.835-9.164zm-15.65 22.456c0-1.214 5.375-3.48 15.65-3.48 10.281 0 15.66 2.266 15.66 3.48 0 1.215-5.379 3.48-15.66 3.48-10.275 0-15.65-2.265-15.65-3.48z"/><path d="M45.246 57.66a2.481 2.481 0 000 4.961c1.368 0 2.48-1.113 2.48-2.481s-1.112-2.48-2.48-2.48zm0 3.461a.981.981 0 11.002-1.961.981.981 0 01-.002 1.961z"/></svg>
